X:247
M:3/4
L:1/8
K:C
G2 | G6/2 A GE | G4 c2 | c6/2 d cA | c4 A2 | G6/2 A GE | G4 E2 | E6/2 E DC | D4 G2 | G6/2 A GE | G4 c2 | c6/2 d cA | c4 A2 | G4 c2 | e4 d2 | c4 || c2 | e6/2 d cd | e4 c2 | c6/2 d cA | c4 A2 | G6/2 A GE | G4 E2 | E6/2 E DC | D4 G2 | G6/2 A GE | G4 !sintro!c2 | c6/2 d cA | c4 A2 | G4 c2 | e4 d2 | c4 !eintro!|]
